src/browser/themes/shared/zen-icons/common/selectable/tada.svg

#filter dumbComments emptyLines substitution
# This Source Code Form is subject to the terms of the Mozilla Public
# License, v. 2.0. If a copy of the MPL was not distributed with this
# file, You can obtain one at http://mozilla.org/MPL/2.0/.
<svg fill="context-fill" fill-opacity="context-fill-opacity" viewBox="0 0 512 512" id="svg1" xmlns="http://www.w3.org/2000/svg" xmlns:svg="http://www.w3.org/2000/svg"><path id="path1" d="m 169.969,148.152 2.271,1.949 202.191,202.517 c 2.644,2.653 4.626,5.892 5.787,9.455 1.161,3.563 1.467,7.35 0.895,11.053 -0.572,3.704 -2.008,7.221 -4.19,10.266 -2.182,3.045 -5.049,5.532 -8.369,7.261 l -2.757,1.218 -247.51,91.334 C 71.7922,500.335 26.5139,456.576 40.6203,410.057 l 1.216,-3.491 91.2057,-247.819 c 1.208,-3.277 3.12,-6.249 5.6,-8.705 2.481,-2.457 5.47,-4.338 8.756,-5.511 3.286,-1.173 6.789,-1.609 10.262,-1.278 3.473,0.331 6.831,1.421 9.837,3.194 z m 215.204,103.633 c 21.727,1.137 51.481,5.724 77.342,21.312 5.186,3.145 8.979,8.152 10.608,14 1.629,5.848 0.972,12.097 -1.838,17.477 -2.81,5.38 -7.561,9.485 -13.287,11.48 -5.726,1.995 -11.996,1.73 -17.534,-0.741 l -2.432,-1.299 c -16.296,-9.742 -37.05,-13.639 -55.372,-14.573 -7.532,-0.5 -15.09,-0.473 -22.619,0.082 l -7.539,0.811 c -6.263,0.889 -12.621,-0.751 -17.676,-4.557 -5.055,-3.806 -8.394,-9.468 -9.281,-15.739 -0.887,-6.271 0.75,-12.638 4.551,-17.701 3.801,-5.062 9.455,-8.405 15.717,-9.293 13.035,-1.695 26.244,-2.117 39.36,-1.259 z m 48.278,-66.491 c 6.076,0.016 11.917,2.354 16.329,6.537 4.411,4.183 7.062,9.895 7.408,15.97 0.347,6.074 -1.636,12.052 -5.543,16.711 -3.907,4.66 -9.443,7.649 -15.478,8.357 l -2.716,0.122 h -16.903 c -6.025,-0.083 -11.795,-2.448 -16.149,-6.62 -4.354,-4.171 -6.969,-9.839 -7.318,-15.863 -0.349,-6.023 1.593,-11.956 5.435,-16.604 3.843,-4.648 9.301,-7.666 15.275,-8.447 l 2.757,-0.163 z M 357.65,166.987 c 4.075,4.128 6.515,9.597 6.866,15.391 0.35,5.795 -1.413,11.519 -4.961,16.109 l -1.946,2.233 -25.294,25.33 c -4.294,4.254 -10.042,6.717 -16.08,6.891 -6.038,0.173 -11.917,-1.956 -16.448,-5.957 -4.531,-4.001 -7.375,-9.575 -7.959,-15.596 -0.584,-6.021 1.138,-12.04 4.815,-16.838 l 1.987,-2.274 25.253,-25.289 c 4.481,-4.462 10.544,-6.966 16.863,-6.966 6.319,0 12.422,2.504 16.904,6.966 z M 295.954,41.3119 c 10.661,32.1495 4.946,67.3031 -1.702,91.9021 -4.03,15.317 -9.542,30.204 -16.458,44.449 -2.902,5.523 -7.85,9.687 -13.782,11.601 -5.932,1.914 -12.376,1.425 -17.952,-1.362 -5.577,-2.786 -9.841,-7.65 -11.88,-13.547 -2.039,-5.897 -1.691,-12.36 0.971,-18.003 5.539,-11.428 9.926,-23.381 13.093,-35.681 5.391,-19.891 8.107,-41.4049 3.972,-59.0627 l -1.499,-5.1553 c -0.993,-2.9745 -1.391,-6.1158 -1.172,-9.2444 0.22,-3.1285 1.052,-6.1832 2.451,-8.9895 1.398,-2.8063 3.335,-5.3093 5.699,-7.3661 2.364,-2.0568 5.11,-3.6272 8.081,-4.6213 2.97,-0.9942 6.107,-1.3928 9.231,-1.173 3.124,0.2198 6.174,1.0537 8.977,2.454 2.802,1.4004 5.302,3.3397 7.356,5.7074 2.053,2.3677 3.622,5.1172 4.614,8.0918 z m 129.025,58.21 c 4.444,4.4861 6.937,10.5481 6.937,16.8661 0,6.318 -2.493,12.381 -6.937,16.867 l -16.822,16.886 c -2.202,2.261 -4.831,4.061 -7.733,5.297 -2.902,1.236 -6.02,1.883 -9.173,1.903 -3.154,0.021 -6.28,-0.586 -9.198,-1.784 -2.918,-1.198 -5.569,-2.964 -7.801,-5.196 -2.231,-2.232 -3.998,-4.885 -5.198,-7.805 -1.2,-2.921 -1.809,-6.051 -1.792,-9.209 0.016,-3.158 0.659,-6.281 1.889,-9.189 1.231,-2.907 3.026,-5.541 5.28,-7.749 l 16.823,-16.8871 c 4.479,-4.4495 10.533,-6.9462 16.842,-6.9462 6.31,0 12.363,2.4967 16.843,6.9462"/></svg>

#filter dumbComments emptyLines substitution
# This Source Code Form is subject to the terms of the Mozilla Public
# License, v. 2.0. If a copy of the MPL was not distributed with this
# file, You can obtain one at http://mozilla.org/MPL/2.0/.
<svg xmlns="http://www.w3.org/2000/svg" fill="context-fill" fill-opacity="context-fill-opacity" viewBox="0 0 512 512"><path d="M169.969 148.152L172.24 150.101L374.431 352.618C377.075 355.271 379.057 358.51 380.218 362.073C381.379 365.636 381.685 369.423 381.113 373.126C380.541 376.83 379.105 380.347 376.923 383.392C374.741 386.437 371.874 388.924 368.554 390.653L365.797 391.871L118.287 483.205C71.7922 500.335 26.5139 456.576 40.6203 410.057L41.8363 406.566L133.042 158.747C134.25 155.47 136.162 152.498 138.642 150.042C141.123 147.585 144.112 145.704 147.398 144.531C150.684 143.358 154.187 142.922 157.66 143.253C161.133 143.584 164.491 144.674 167.497 146.447L169.969 148.152ZM385.173 251.785C406.9 252.922 436.654 257.509 462.515 273.097C467.701 276.242 471.494 281.249 473.123 287.097C474.752 292.945 474.095 299.194 471.285 304.574C468.475 309.954 463.724 314.059 457.998 316.054C452.272 318.049 446.002 317.784 440.464 315.313L438.032 314.014C421.736 304.272 400.982 300.375 382.66 299.441C375.128 298.941 367.57 298.968 360.041 299.523L352.502 300.334C346.239 301.223 339.881 299.583 334.826 295.777C329.771 291.971 326.432 286.309 325.545 280.038C324.658 273.767 326.295 267.4 330.096 262.337C333.897 257.275 339.551 253.932 345.813 253.044C358.848 251.349 372.057 250.927 385.173 251.785ZM433.451 185.294C439.527 185.31 445.368 187.648 449.78 191.831C454.191 196.014 456.842 201.726 457.188 207.801C457.535 213.875 455.552 219.853 451.645 224.512C447.738 229.172 442.202 232.161 436.167 232.869L433.451 232.991H416.548C410.523 232.908 404.753 230.543 400.399 226.371C396.045 222.2 393.43 216.532 393.081 210.508C392.732 204.485 394.674 198.552 398.516 193.904C402.359 189.256 407.817 186.238 413.791 185.457L416.548 185.294H433.451ZM357.65 166.987C361.725 171.115 364.165 176.584 364.516 182.378C364.866 188.173 363.103 193.897 359.555 198.487L357.609 200.72L332.315 226.05C328.021 230.304 322.273 232.767 316.235 232.941C310.197 233.114 304.318 230.985 299.787 226.984C295.256 222.983 292.412 217.409 291.828 211.388C291.244 205.367 292.966 199.348 296.643 194.55L298.63 192.276L323.883 166.987C328.364 162.525 334.427 160.021 340.746 160.021C347.065 160.021 353.168 162.525 357.65 166.987ZM295.954 41.3119C306.615 73.4614 300.9 108.615 294.252 133.214C290.222 148.531 284.71 163.418 277.794 177.663C274.892 183.186 269.944 187.35 264.012 189.264C258.08 191.178 251.636 190.689 246.06 187.902C240.483 185.116 236.219 180.252 234.18 174.355C232.141 168.458 232.489 161.995 235.151 156.352C240.69 144.924 245.077 132.971 248.244 120.671C253.635 100.78 256.351 79.2661 252.216 61.6083L250.717 56.453C249.724 53.4785 249.326 50.3372 249.545 47.2086C249.765 44.0801 250.597 41.0254 251.996 38.2191C253.394 35.4128 255.331 32.9098 257.695 30.853C260.059 28.7962 262.805 27.2258 265.776 26.2317C268.746 25.2375 271.883 24.8389 275.007 25.0587C278.131 25.2785 281.181 26.1124 283.984 27.5127C286.786 28.9131 289.286 30.8524 291.34 33.2201C293.393 35.5878 294.962 38.3373 295.954 41.3119ZM424.979 99.5219C429.423 104.008 431.916 110.07 431.916 116.388C431.916 122.706 429.423 128.769 424.979 133.255L408.157 150.141C405.955 152.402 403.326 154.202 400.424 155.438C397.522 156.674 394.404 157.321 391.251 157.341C388.097 157.362 384.971 156.755 382.053 155.557C379.135 154.359 376.484 152.593 374.252 150.361C372.021 148.129 370.254 145.476 369.054 142.556C367.854 139.635 367.245 136.505 367.262 133.347C367.278 130.189 367.921 127.066 369.151 124.158C370.382 121.251 372.177 118.617 374.431 116.409L391.254 99.5219C395.733 95.0724 401.787 92.5757 408.096 92.5757C414.406 92.5757 420.459 95.0724 424.939 99.5219"/></svg>
